X: 16856
T: Harvey's
R: strathspey
M: 4/4
K: Adorian
B,|"Am"C>A, A,/A,/A, A>GE>A|"G"G>DE<G D<GD>B,|"Am"C>A, A,/A,/A, A>GE>A|"G"G>E"D"F<D "Em"{EF}E2 D>B,|
"Am"C>A, A,/A,/A, A>GE>A|"G"G>DE<G D<GD>B,|"Am"(3CB,A, "C"(3CDE "G"(3DCB, "Dm"(3DE=F|"C"E<C"G"D>B, "Am"E>A,A,||
B|"Am"(3cBA (3Aag a>ee<a|"G"g>de<g d<gd>B|"Am"(3cBA (3Aag a>ee<a|"G"g>e"D"f<d "Em"{ef}[e2e2] d>B|
"Am"(3cBA (3Aag a>ee<a|"G"g>de<g d<gd>B|"Am"(3cBA "C"(3cde "G"(3dcB "Dm"(3de=f|"C"e<c"G"d>B "Am"e>AA||

